X: 13086
T: Fiona's
R: waltz
M: 3/4
K: Amajor
c2 c>E F>A|B2 B>E F>A|c2 c>E F>A|f>A e>A (3dcB|
c2 c>E F>A|B2 B>E F>A|c2 c>E F>A|1 f>A e>A (3dcB:|2 f>A e>A d>f||
e>f e>c B>A|d>e d>F A>d|e>f e>c B>A|f>A e>A d>f|
e>f e>c B>A|d>e d>F A>d|e>f e>c B>A|1 f>A e>A d>f:|2 f>A e>A (3dcB||

